X:962
T:Tam O'Shanter
S:Jim MacLeod LP, Take Your Partners
Z:Nigel Gatherer
L:1/8
M:6/8
K:D
A | F>GA A>Bc | d2e f2g | a>ba f2d | e>dc B.AG |
F>GA A>Bc | d2e f2g | a>ba f>ed | e>fe d2 :|
g | f>ga g2f | e>fg f2e | d>ef e2d | e>dc B.AG |
F>GA A>Bc | d2e f2g | a>ba f>ed | e>fe d2 :|
<end>
<start>
